icons/night/nim.svg

<svg xmlns="http://www.w3.org/2000/svg" fill="none" viewBox="0 0 16 16"><path
    fill="#e0af68"
    d="m8 3-.894 1.234c-.489-.015-1.448.094-1.968.283C4.659 4.214 4 3.5 4 3.5l-.347 1.36c-.336.18-.673.38-.973.645L1.5 4.5c.462.932 1.184 3.058 2.032 3.619 1.345-2.625 7.599-2.427 8.972-.012.888-.463 1.514-2.324 1.863-3.246-.275.092-.83.555-1.102.656-.183-.2-.617-.507-.863-.656C12.169 4.433 12 3.5 12 3.5s-.574.655-1.041.982c-.63-.117-1.394-.258-2.035-.223C8.487 3.899 8 3 8 3Z"
  /><path
    fill="#e0af68"
    d="m2.391 8.015 1.111 3.436c1.928 2.543 6.851 2.718 8.998.049L13.693 8c-.551.816-1.447 1.379-1.999 1.684-.392.215-1.297.345-1.297.345L8.023 8.798l-2.389 1.206s-.893-.143-1.297-.332c-.816-.436-1.364-.95-1.943-1.655l-.003-.002Z"
  /></svg>

<svg width="16" height="16" viewBox="0 0 16 16" fill="none" xmlns="http://www.w3.org/2000/svg">
<path d="M8 3L7.106 4.234C6.617 4.219 5.658 4.328 5.138 4.517C4.659 4.214 4 3.5 4 3.5L3.653 4.86C3.317 5.04 2.98 5.24 2.68 5.505L1.5 4.5C1.962 5.432 2.684 7.558 3.532 8.119C4.877 5.494 11.131 5.692 12.504 8.107C13.392 7.644 14.018 5.783 14.367 4.861C14.092 4.953 13.537 5.416 13.265 5.517C13.082 5.317 12.648 5.01 12.402 4.861C12.169 4.433 12 3.5 12 3.5C12 3.5 11.426 4.155 10.959 4.482C10.329 4.365 9.565 4.224 8.924 4.259C8.487 3.899 8 3 8 3Z" fill="#E0AF68"/>
<path d="M2.391 8.015L3.502 11.451C5.43 13.994 10.353 14.169 12.5 11.5L13.693 8C13.142 8.816 12.246 9.379 11.694 9.684C11.302 9.899 10.397 10.029 10.397 10.029L8.023 8.798L5.634 10.004C5.634 10.004 4.741 9.861 4.337 9.672C3.521 9.236 2.973 8.722 2.394 8.017L2.391 8.015Z" fill="#E0AF68"/>
</svg>
